assets/img/icons/syringe.svg

<svg width="25" height="25" viewBox="0 0 25 25" fill="none" xmlns="http://www.w3.org/2000/svg">
<g clip-path="url(#clip0_364_909)">
<path d="M23.4741 7.62914L24.9637 6.17081L18.9741 0.0531006L17.4845 1.51143L19.8345 3.90727L17.5647 6.03331L16.6147 5.08227C16.0302 4.49817 15.2381 4.16938 14.4117 4.16782C13.5854 4.16626 12.7921 4.49205 12.2053 5.07393L15.5449 8.41352L14.072 9.88644L10.7293 6.54581L9.0793 8.19789L12.4199 11.5385L10.947 13.0114L7.6043 9.67081L5.9543 11.3229L9.29492 14.6635L7.822 16.1364L4.4793 12.7958L3.12513 14.1521V20.4021L0.0449219 23.4823L1.51784 24.9552L4.59805 21.875H10.848L19.9178 12.8052C20.2081 12.515 20.4383 12.1705 20.5954 11.7913C20.7525 11.4121 20.8333 11.0057 20.8333 10.5953C20.8333 10.1849 20.7525 9.77846 20.5954 9.39928C20.4383 9.0201 20.2081 8.67558 19.9178 8.38539L19.0387 7.50727L21.2918 5.39998L23.4741 7.62914Z" fill="#BF1F1F"/>
</g>
<defs>
<clipPath id="clip0_364_909">
<rect width="25" height="25" fill="white"/>
</clipPath>
</defs>
</svg>

<svg width="25" height="25" fill="none" xmlns="http://www.w3.org/2000/svg"><g clip-path="url(#a)"><path d="m23.474 7.63 1.49-1.46-5.99-6.117-1.49 1.458 2.35 2.396-2.27 2.126-.95-.95a3.125 3.125 0 0 0-4.409-.01l3.34 3.34-1.473 1.473-3.343-3.34-1.65 1.652 3.34 3.34-1.472 1.473-3.343-3.34-1.65 1.652 3.34 3.34-1.472 1.473-3.343-3.34-1.354 1.356v6.25l-3.08 3.08 1.473 1.473 3.08-3.08h6.25l9.07-9.07a3.124 3.124 0 0 0 0-4.42l-.88-.878L21.293 5.4l2.182 2.23Z" fill="#BF1F1F"/></g><defs><clipPath id="a"><path fill="#fff" d="M0 0h25v25H0z"/></clipPath></defs></svg>
